X:167
T:Le Metro
C:Jocelyne Patenaude
N:Listen carefully and you can hear the sound of the Montreal metro system
R:jig
M:6/8
L:1/8
K:G
|:DGd DGd|ABc BAG|A2c BAG|AGE GED|
DGd DGd|ABc BAG|ABc BAG|AGE D3::
A2A BGB|AcB AGE|DGd G2d|ece d2d|
A2A BGB|AcB AGE|DGG dGd|dcA G3:|
